X: 305750
T: COTILLION No. 19. TREMONT SETT tune 6
C:
%R: march, reel
B: Elias Howe "The Musician's Companion" Part 3 1844 p.121 #3
S: http://imslp.org/wiki/The_Musician's_Companion_(Howe,_Elias)
Z: 2015 John Chambers <jc:trillian.mit.edu>
M: 2/4
L: 1/16
K: C
% - - - - - - - - - - - - - - - - - - - - - - - - - - - - -
f2 |\
e2d2 c2B2 | A4 G2cB | AFAc BGBd | cBcd c2Gc |\
e2d2c2B2 | A4 G2cB | G2dc BcdB | c2c2c2 H|]
K: G
M: 6/8
L: 1/8
B/c/ |\
ded cAB | cdc BGA | BcB AFG | A/B/A/G/F/E/ DBc |\
ded cAB | cdc BGA | BcB AGF | GBd "^D.C."g2 |]
c/d/ |\
e2e ef^d | e2e eAB | cde edB  | cBB Bcd |\
e2e efd  | eag aAB | Adc BA^G | A3 "^D.C."A2 |]
% - - - - - - - - - - Dance description - - - - - - - - - -
%%begintext align
%% Grand right and left,
%% all balance,
%% grand chain,
%% all promenade.
%%endtext
% - - - - - - - - - - - - - - - - - - - - - - - - - - - - -
%%sep 1 1 300


